;FLAVOR:RepRap
;TIME:12336
;Filament used: 14.2351m
;Layer height: 0.15
;MINX:14.013
;MINY:0
;MINZ:0.3
;MAXX:85.896
;MAXY:100
;MAXZ:79.65
;TARGET_MACHINE.NAME:Unknown
;Generated with Cura_SteamEngine 5.9.0
T0
M104 S200
M109 S200
M82 ;absolute extrusion mode
G28 ;Home
G1 Z15.0 F6000 ;Move the platform down 15mm
G92 E0
M83 ;relative extrusion mode
G1 F1500 E-6.5
;LAYER_COUNT:530
;LAYER:0
M107
G0 F3600 X47.232 Y0.00 Z0.3
;TYPE:SKIRT
G1 F1500 E6.5
G1 F1800 X38.122 Y4.868 E0.51532
G1 X29.932 Y11.604 E0.52905
G1 X23.16 Y19.846 E0.53219
G1 X18.16 Y29.186 E0.52854
G1 X15.058 Y39.396 E0.53237
G1 X14.013 Y49.982 E0.5307
G1 X15.058 Y60.603 E0.53244
G1 X18.137 Y70.762 E0.5296
G1 X23.165 Y80.169 E0.53215
G1 X29.904 Y88.368 E0.52949
G1 X38.148 Y95.142 E0.53233
G1 X47.223 Y100 E0.51354
G1 F1500 E-6.5
G0 F3600 X48.397 Y100
G1 F1500 E6.5
G1 F1800 X47.643 Y99.771 E0.03931
G1 X38.37 Y94.807 E0.52475
G1 X30.188 Y88.084 E0.52833
G1 X23.5 Y79.947 E0.52548
G1 X18.508 Y70.607 E0.52836
G1 X15.452 Y60.523 E0.52569
G1 X14.415 Y49.982 E0.52843
G1 X15.452 Y39.476 E0.52669
G1 X18.531 Y29.341 E0.52846
G1 X23.495 Y20.068 E0.52475
G1 X30.216 Y11.888 E0.52819
G1 X38.344 Y5.203 E0.52504
G1 X47.705 Y0.201 E0.52951
G1 X48.369 Y0.00 E0.03461
G1 F1500 E-6.5
G0 F3600 X49.749 Y0.00
G1 F1500 E6.5
G1 F1800 X47.86 Y0.572 E0.09847
G1 X38.566 Y5.538 E0.52572
G1 X30.5 Y12.172 E0.52104
G1 X23.83 Y20.29 E0.52418
G1 X18.902 Y29.496 E0.52095
G1 X15.846 Y39.556 E0.52454
G1 X14.817 Y49.982 E0.52268
G1 X15.846 Y60.443 E0.52442
G1 X18.879 Y70.452 E0.52177
G1 X23.835 Y79.725 E0.52456
G1 X30.472 Y87.8 E0.52148
G1 X38.592 Y94.472 E0.52432
G1 X47.798 Y99.4 E0.52095
G1 X49.774 Y100 E0.10303
G1 F1500 E-6.5
G0 F3600 X51.151 Y100
G1 F1500 E6.5
G1 F1800 X47.953 Y99.029 E0.16674
G1 X38.814 Y94.137 E0.51716
G1 X30.756 Y87.516 E0.52032
G1 X24.17 Y79.503 E0.51747
G1 X19.25 Y70.297 E0.52077
G1 X16.24 Y60.363 E0.51786
G1 X15.219 Y49.982 E0.52041
G1 X16.24 Y39.636 E0.51867
G1 X19.273 Y29.651 E0.52063
G1 X24.165 Y20.512 E0.51716
G1 X30.784 Y12.456 E0.52018
G1 X38.788 Y5.873 E0.51703
G1 X48.015 Y0.943 E0.52193
G1 X51.13 Y0.00 E0.16237
G1 F1500 E-6.5
G0 F3600 X52.511 Y0.00
G1 F1500 E6.5
G1 F1800 X48.168 Y1.315 E0.22639
G1 X39.012 Y6.207 E0.51791
G1 X31.068 Y12.74 E0.51314
G1 X24.5 Y20.734 E0.51617
G1 X19.644 Y29.806 E0.51336
G1 X16.634 Y39.716 E0.51671
G1 X15.621 Y49.982 E0.51466
G1 X16.634 Y60.283 E0.5164
G1 X19.621 Y70.142 E0.51395
G1 X24.505 Y79.281 E0.51697
G1 X31.04 Y87.232 E0.51347
G1 X39.036 Y93.802 E0.51631
G1 X48.108 Y98.658 E0.51336
G1 X52.528 Y100 E0.23045
G1 F1500 E-6.5
G0 F3600 X53.905 Y100
G1 F1500 E6.5
G1 F1800 X48.263 Y98.287 E0.29417
G1 X39.258 Y93.467 E0.50957
G1 X31.324 Y86.948 E0.51231
G1 X24.84 Y79.059 E0.50946
G1 X19.992 Y69.987 E0.51318
G1 X17.028 Y60.203 E0.51003
G1 X16.023 Y49.982 E0.51239
G1 X17.028 Y39.796 E0.51065
G1 X20.015 Y29.961 E0.5128
G1 X24.835 Y20.956 E0.50957
G1 X31.352 Y13.024 E0.51217
G1 X39.236 Y6.541 E0.50924
G1 X48.321 Y1.687 E0.51389
G1 X53.892 Y0.00 E0.2904
G1 F1500 E-6.5
G0 F3600 X55.273 Y0.00
G1 F1500 E6.5
G1 F1800 X48.474 Y2.059 E0.35442
G1 X39.46 Y6.875 E0.50987
G1 X31.636 Y13.308 E0.50534
G1 X25.17 Y21.178 E0.50816
G1 X20.386 Y30.116 E0.50578
G1 X17.422 Y39.876 E0.50889
G1 X16.425 Y49.982 E0.50664
G1 X17.422 Y60.123 E0.50838
G1 X20.363 Y69.832 E0.50612
G1 X25.175 Y78.837 E0.50938
G1 X31.608 Y86.664 E0.50546
G1 X39.48 Y93.132 E0.5083
G1 X48.418 Y97.916 E0.50578
G1 X55.282 Y100 E0.35788
G1 F1500 E-6.5
G0 F3600 X56.659 Y100
G1 F1500 E6.5
G1 F1800 X48.573 Y97.545 E0.4216
G1 X39.702 Y92.797 E0.50198
G1 X31.892 Y86.38 E0.5043
G1 X25.51 Y78.615 E0.50145
G1 X20.734 Y69.677 E0.50559
G1 X17.816 Y60.043 E0.50221
G1 X16.827 Y49.982 E0.50436
G1 X17.816 Y39.956 E0.50263
G1 X20.757 Y30.271 E0.50497
G1 X25.505 Y21.4 E0.50198
G1 X31.92 Y13.592 E0.50416
G1 X39.684 Y7.209 E0.50145
G1 X48.627 Y2.431 E0.50585
G1 X56.654 Y0.00 E0.41843
G1 F1500 E-6.5
G0 F3600 X58.035 Y0.00
G1 F1500 E6.5
G1 F1800 X48.78 Y2.803 E0.48245
G1 X39.908 Y7.543 E0.50184
G1 X32.204 Y13.876 E0.49755
G1 X25.84 Y21.622 E0.50015
G1 X21.128 Y30.426 E0.49819
G1 X18.21 Y40.036 E0.50106
G1 X17.229 Y49.982 E0.49862
G1 X18.21 Y59.963 E0.50035
G1 X21.105 Y69.522 E0.49829
G1 X25.845 Y78.393 E0.50179
G1 X32.176 Y86.096 E0.49745
G1 X39.924 Y92.462 E0.50029
G1 X48.728 Y97.174 E0.49819
G1 X58.036 Y100 E0.48531
G1 F1500 E-6.5
G0 F3600 X61.481 Y100
G1 F1500 E6.5
G1 F1800 X58.419 Y99.698 E0.15351
G1 X48.883 Y96.803 E0.49719
G1 X40.146 Y92.127 E0.49439
G1 X32.46 Y85.812 E0.49629
G1 X26.18 Y78.171 E0.49344
G1 X21.476 Y69.367 E0.498
G1 X18.604 Y59.883 E0.49438
G1 X17.631 Y49.982 E0.49634
G1 X18.604 Y40.116 E0.4946
G1 X21.499 Y30.581 E0.49715
G1 X26.175 Y21.844 E0.49439
G1 X32.488 Y14.16 E0.49615
G1 X40.132 Y7.877 E0.49365
G1 X48.933 Y3.175 E0.49782
G1 X58.419 Y0.302 E0.49449
G1 X61.493 Y0.00 E0.1541
G1 F1500 E-6.5
G0 F3600 X65.584 Y0.00
G1 F1500 E6.5
G1 F1800 X58.499 Y0.696 E0.35517
G1 X49.086 Y3.547 E0.49068
G1 X40.356 Y8.211 E0.4938
G1 X32.772 Y14.444 E0.48976
G1 X26.51 Y22.066 E0.49214
G1 X21.87 Y30.736 E0.4906
G1 X18.998 Y40.196 E0.49323
G1 X18.033 Y49.982 E0.49059
G1 X18.998 Y59.803 E0.49233
G1 X21.848 Y69.214 E0.49057
G1 X26.514 Y77.947 E0.49398
G1 X32.744 Y85.528 E0.48955
G1 X40.368 Y91.792 E0.49228
G1 X49.038 Y96.432 E0.4906
G1 X58.499 Y99.304 E0.49328
G1 X65.555 Y100 E0.35373
G1 F1500 E-6.5
G0 F3600 X84.365 Y100
G1 F1500 E6.5
G1 F1800 X85.435 Y98.114 E0.10818
G1 X85.895 Y95.933 E0.1112
G1 X85.84 Y87.597 E0.41589
G1 X85.676 Y86.508 E0.05494
G1 X84.969 Y84.649 E0.09923
G1 X83.52 Y82.784 E0.11783
G1 X81.776 Y81.538 E0.10693
G1 X80.643 Y81.097 E0.06066
G1 X78.665 Y80.614 E0.10158
G1 X76.495 Y80.762 E0.10851
G1 X74.508 Y81.368 E0.10364
G1 X68.302 Y81.977 E0.31111
G1 X62.09 Y81.368 E0.3114
G1 X56.087 Y79.552 E0.31289
G1 X50.486 Y76.549 E0.31706
G1 X45.687 Y72.617 E0.30952
G1 X41.751 Y67.813 E0.30984
G1 X38.75 Y62.215 E0.31689
G1 X36.934 Y56.212 E0.31289
G1 X36.325 Y50.002 E0.3113
G1 X36.934 Y43.787 E0.31155
G1 X38.75 Y37.785 E0.31285
G1 X41.756 Y32.18 E0.31731
G1 X45.679 Y27.391 E0.30885
G1 X50.492 Y23.447 E0.31044
G1 X56.087 Y20.448 E0.31671
G1 X62.09 Y18.632 E0.31289
G1 X68.302 Y18.023 E0.3114
G1 X74.531 Y18.632 E0.31225
G1 X76.183 Y19.115 E0.08587
G1 X77.973 Y19.413 E0.09053
G1 X79.92 Y19.155 E0.09799
G1 X81.709 Y18.483 E0.09534
G1 X83.304 Y17.418 E0.09568
G1 X83.859 Y16.845 E0.0398
G1 X85.27 Y14.826 E0.12289
G1 X85.331 Y14.69 E0.00744
G1 X85.896 Y12.316 E0.12175
G1 X85.895 Y3.703 E0.4297
G1 X85.225 Y1.395 E0.1199
G1 X84.471 Y0.221 E0.06961
G1 X84.283 Y0.00 E0.01448
G0 F3600 X83.758 Y0.00
G1 F1800 X84.134 Y0.437 E0.02876
G1 X84.858 Y1.564 E0.06683
G1 X85.495 Y3.759 E0.11403
G1 X85.496 Y12.269 E0.42457
G1 X84.942 Y14.597 E0.11939
G1 X83.531 Y16.616 E0.12289
G1 X83.049 Y17.107 E0.03433
G1 X81.523 Y18.126 E0.09155
G1 X79.825 Y18.764 E0.0905
G1 X77.98 Y19.008 E0.09285
G1 X76.249 Y18.72 E0.08755
G1 X74.61 Y18.238 E0.08523
G1 X68.302 Y17.621 E0.31621
G1 X62.01 Y18.238 E0.31541
G1 X55.932 Y20.077 E0.31681
G1 X50.27 Y23.112 E0.3205
G1 X45.397 Y27.105 E0.31431
G1 X41.419 Y31.961 E0.31318
G1 X38.379 Y37.63 E0.32093
G1 X36.54 Y43.707 E0.31676
G1 X35.923 Y50.002 E0.31556
G1 X36.54 Y56.292 E0.31532
G1 X38.379 Y62.37 E0.31681
G1 X41.414 Y68.032 E0.3205
G1 X45.403 Y72.901 E0.31403
G1 X50.267 Y76.886 E0.31371
G1 X55.932 Y79.923 E0.32068
G1 X62.01 Y81.762 E0.31681
G1 X68.302 Y82.379 E0.31541
G1 X74.589 Y81.762 E0.31517
G1 X76.57 Y81.158 E0.10332
G1 X78.629 Y81.017 E0.10296
G1 X80.498 Y81.47 E0.09594
G1 X81.587 Y81.894 E0.0583
G1 X83.239 Y83.074 E0.10128
G1 X84.616 Y84.847 E0.112
G1 X85.286 Y86.608 E0.094
G1 X85.444 Y87.657 E0.05293
G1 X85.495 Y95.894 E0.41095
G1 X85.057 Y97.97 E0.10585
G1 X83.905 Y100 E0.11645
G0 F3600 X83.346 Y100
G1 F1800 X83.54 Y99.833 E0.01277
G1 X84.679 Y97.826 E0.11513
G1 X85.095 Y95.855 E0.1005
G1 X85.048 Y87.717 E0.40601
G1 X84.896 Y86.708 E0.05091
G1 X84.263 Y85.045 E0.08877
G1 X82.96 Y83.366 E0.10603
G1 X81.395 Y82.249 E0.09593
G1 X80.353 Y81.843 E0.05579
G1 X78.594 Y81.42 E0.09026
G1 X76.645 Y81.554 E0.09747
G1 X74.67 Y82.156 E0.10301
G1 X68.302 Y82.781 E0.31923
G1 X61.93 Y82.156 E0.31943
G1 X55.777 Y80.294 E0.32072
G1 X50.045 Y77.221 E0.32447
G1 X45.119 Y73.185 E0.31771
G1 X41.079 Y68.254 E0.31803
G1 X38.008 Y62.525 E0.3243
G1 X36.146 Y56.372 E0.32072
G1 X35.521 Y50.002 E0.31933
G1 X36.146 Y43.627 E0.31957
G1 X38.008 Y37.475 E0.32067
G1 X41.082 Y31.742 E0.32454
G1 X45.115 Y26.819 E0.3175
G1 X50.048 Y22.777 E0.31817
G1 X55.777 Y19.706 E0.3243
G1 X61.93 Y17.844 E0.32072
G1 X68.302 Y17.219 E0.31943
G1 X74.689 Y17.844 E0.32017
G1 X76.315 Y18.325 E0.0846
G1 X77.987 Y18.603 E0.08456
G1 X79.73 Y18.373 E0.08771
G1 X81.337 Y17.769 E0.08565
G1 X82.795 Y16.795 E0.08748
G1 X83.246 Y16.336 E0.0321
G1 X84.57 Y14.432 E0.1157
G1 X85.096 Y12.222 E0.11334
G1 X85.095 Y3.816 E0.41938
G1 X84.49 Y1.732 E0.10826
G1 X83.797 Y0.653 E0.06398
G1 X83.231 Y0.00 E0.04311
G0 F3600 X82.702 Y0.00
G1 F1800 X83.46 Y0.869 E0.05753
G1 X84.123 Y1.901 E0.0612
G1 X84.695 Y3.872 E0.10239
G1 X84.696 Y12.175 E0.41424
G1 X84.198 Y14.266 E0.10724
G1 X82.961 Y16.055 E0.10851
G1 X82.538 Y16.485 E0.03009
G1 X81.151 Y17.412 E0.08323
G1 X79.635 Y17.982 E0.0808
G1 X77.994 Y18.198 E0.08258
G1 X76.428 Y17.941 E0.07917
G1 X74.768 Y17.45 E0.08636
G1 X68.302 Y16.817 E0.32413
G1 X61.85 Y17.45 E0.32344
G1 X55.622 Y19.335 E0.32464
G1 X49.826 Y22.442 E0.32809
G1 X44.833 Y26.533 E0.32204
G1 X40.745 Y31.523 E0.32183
G1 X37.637 Y37.32 E0.32816
G1 X35.752 Y43.547 E0.32459
G1 X35.119 Y50.002 E0.32359
G1 X35.752 Y56.452 E0.32334
G1 X37.637 Y62.68 E0.32464
G1 X40.742 Y68.473 E0.32791
G1 X44.835 Y73.469 E0.32222
G1 X49.826 Y77.558 E0.3219
G1 X55.622 Y80.665 E0.32809
G1 X61.85 Y82.55 E0.32464
G1 X68.302 Y83.183 E0.32344
G1 X74.751 Y82.55 E0.32329
G1 X76.72 Y81.95 E0.10269
G1 X78.56 Y81.823 E0.09202
G1 X80.208 Y82.216 E0.08452
G1 X81.203 Y82.604 E0.05328
G1 X82.681 Y83.658 E0.09057
G1 X83.91 Y85.242 E0.10002
G1 X84.506 Y86.808 E0.0836
G1 X84.652 Y87.777 E0.04889
G1 X84.695 Y95.816 E0.40107
G1 X84.301 Y97.682 E0.09515
G1 X83.227 Y99.575 E0.10858
G1 X82.732 Y100 E0.03255
G0 F3600 X82.118 Y100
G1 F1800 X82.914 Y99.317 E0.05233
G1 X83.923 Y97.538 E0.10204
G1 X84.295 Y95.777 E0.0898
G1 X84.256 Y87.837 E0.39613
G1 X84.116 Y86.908 E0.04687
G1 X83.557 Y85.439 E0.07842
G1 X82.402 Y83.95 E0.09402
G1 X81.011 Y82.959 E0.08521
G1 X80.063 Y82.589 E0.05077
G1 X78.527 Y82.226 E0.07874
G1 X76.795 Y82.346 E0.08662
G1 X74.832 Y82.944 E0.10238
G1 X68.302 Y83.585 E0.32735
G1 X61.77 Y82.944 E0.32745
G1 X55.467 Y81.036 E0.32855
G1 X49.604 Y77.893 E0.33189
G1 X44.551 Y73.753 E0.3259
G1 X40.407 Y68.695 E0.32622
G1 X37.266 Y62.835 E0.33171
G1 X35.358 Y56.532 E0.32855
G1 X34.717 Y50.002 E0.32735
G1 X35.358 Y43.467 E0.3276
G1 X37.266 Y37.165 E0.3285
G1 X40.408 Y31.304 E0.33177
G1 X44.551 Y26.247 E0.32615
G1 X49.604 Y22.107 E0.3259
G1 X55.467 Y18.964 E0.33189
G1 X61.77 Y17.056 E0.32855
G1 X68.302 Y16.415 E0.32745
G1 X74.847 Y17.056 E0.32809
G1 X76.541 Y17.557 E0.08813
G1 X78 Y17.793 E0.07374
G1 X79.54 Y17.591 E0.07749
G1 X80.965 Y17.055 E0.07596
G1 X82.281 Y16.175 E0.07898
G1 X82.676 Y15.774 E0.02808
G1 X83.826 Y14.1 E0.10132
G1 X84.296 Y12.128 E0.10114
G1 X84.295 Y3.929 E0.40905
G1 X83.755 Y2.069 E0.09663
G1 X83.123 Y1.085 E0.05835
G1 X82.171 Y0.00 E0.07201
G0 F3600 X81.531 Y0.00
G1 F1800 X81.758 Y0.136 E0.0132
G1 X82.786 Y1.301 E0.07751
G1 X83.388 Y2.238 E0.05556
G1 X83.895 Y3.985 E0.09075
G1 X83.896 Y12.081 E0.40391
G1 X83.454 Y13.935 E0.09509
G1 X82.346 Y15.548 E0.09763
G1 X82.059 Y15.842 E0.0205
G1 X80.779 Y16.698 E0.07682
G1 X79.445 Y17.2 E0.07111
G1 X78.005 Y17.389 E0.07246
G1 X76.654 Y17.173 E0.06826
G1 X74.926 Y16.662 E0.0899
G1 X68.302 Y16.013 E0.33206
G1 X61.69 Y16.662 E0.33146
G1 X55.312 Y18.593 E0.33246
G1 X49.385 Y21.77 E0.3355
G1 X44.267 Y25.963 E0.33009
G1 X40.071 Y31.085 E0.33034
G1 X36.895 Y37.01 E0.33539
G1 X34.964 Y43.387 E0.33242
G1 X34.315 Y50.002 E0.33161
G1 X34.964 Y56.612 E0.33136
G1 X36.895 Y62.99 E0.33246
G1 X40.07 Y68.914 E0.33532
G1 X44.267 Y74.037 E0.33041
G1 X49.385 Y78.23 E0.33009
G1 X55.312 Y81.407 E0.3355
G1 X61.69 Y83.338 E0.33246
G1 X68.302 Y83.987 E0.33146
G1 X74.913 Y83.338 E0.33141
G1 X76.87 Y82.742 E0.10206
G1 X78.496 Y82.629 E0.08132
G1 X79.918 Y82.962 E0.07286
G1 X80.82 Y83.314 E0.04831
G1 X82.123 Y84.242 E0.07981
G1 X83.204 Y85.636 E0.08801
G1 X83.726 Y87.008 E0.07324
G1 X83.86 Y87.897 E0.04485
G1 X83.895 Y95.738 E0.39119
G1 X83.545 Y97.394 E0.08444
G1 X82.601 Y99.059 E0.09549
G1 X81.639 Y99.884 E0.06323
G1 X81.464 Y100 E0.01047
G0 F3600 X80.742 Y100
G1 F1800 X81.379 Y99.58 E0.03807
G1 X82.288 Y98.801 E0.05973
G1 X83.167 Y97.25 E0.08894
G1 X83.495 Y95.698 E0.07914
G1 X83.464 Y87.957 E0.3862
G1 X83.336 Y87.108 E0.04284
G1 X82.851 Y85.833 E0.06806
G1 X81.844 Y84.534 E0.082
G1 X80.629 Y83.669 E0.07441
G1 X79.773 Y83.335 E0.04584
G1 X78.463 Y83.032 E0.06708
G1 X76.945 Y83.138 E0.07592
G1 X74.994 Y83.732 E0.10175
G1 X68.302 Y84.389 E0.33547
G1 X61.61 Y83.732 E0.33547
G1 X55.157 Y81.778 E0.33638
G1 X49.166 Y78.567 E0.33912
G1 X43.983 Y74.321 E0.33427
G1 X39.733 Y69.133 E0.33459
G1 X36.524 Y63.145 E0.33894
G1 X34.57 Y56.692 E0.33638
G1 X33.913 Y50.002 E0.33537
G1 X34.57 Y43.307 E0.33562
G1 X36.524 Y36.855 E0.33633
G1 X39.734 Y30.866 E0.339
G1 X43.983 Y25.679 E0.33452
G1 X49.166 Y21.433 E0.33427
G1 X55.157 Y18.222 E0.33912
G1 X61.61 Y16.268 E0.33638
G1 X68.302 Y15.611 E0.33547
G1 X75.005 Y16.268 E0.33602
G1 X76.767 Y16.789 E0.09167
G1 X78.009 Y16.985 E0.06273
G1 X79.35 Y16.809 E0.06748
G1 X80.596 Y16.34 E0.06642
G1 X81.837 Y15.51 E0.07448
G1 X82.016 Y15.321 E0.01299
G1 X83.083 Y13.768 E0.094
G1 X83.496 Y12.034 E0.08893
G1 X83.495 Y4.042 E0.39872
G1 X83.02 Y2.406 E0.08499
G1 X82.449 Y1.517 E0.05271
G1 X81.499 Y0.447 E0.07139
G1 X80.754 Y0.00 E0.04335
G0 F3600 X79.94 Y0.00
G1 F1800 X80.011 Y0.021 E0.00369
G1 X81.241 Y0.759 E0.07156
G1 X82.112 Y1.733 E0.06519
G1 X82.653 Y2.575 E0.04993
G1 X83.095 Y4.098 E0.07912
G1 X83.096 Y11.987 E0.39358
G1 X82.711 Y13.603 E0.08288
G1 X81.686 Y15.095 E0.09031
G1 X81.578 Y15.202 E0.00758
G1 X80.41 Y15.983 E0.0701
G1 X79.255 Y16.418 E0.06157
G1 X78.012 Y16.581 E0.06254
G1 X76.88 Y16.405 E0.05715
G1 X75.084 Y15.874 E0.09344
G1 X68.302 Y15.209 E0.33998
G1 X61.53 Y15.874 E0.33948
G1 X55.002 Y17.851 E0.34029
G1 X48.947 Y21.096 E0.34273
G1 X43.697 Y25.397 E0.3386
G1 X39.398 Y30.644 E0.33842
G1 X36.153 Y36.7 E0.34278
G1 X34.176 Y43.227 E0.34024
G1 X33.511 Y50.002 E0.33963
G1 X34.176 Y56.772 E0.33938
G1 X36.153 Y63.3 E0.34029
G1 X39.396 Y69.352 E0.34255
G1 X43.699 Y74.605 E0.33878
G1 X48.947 Y78.904 E0.33846
G1 X55.002 Y82.149 E0.34273
G1 X61.53 Y84.126 E0.34029
G1 X68.302 Y84.791 E0.33948
G1 X75.074 Y84.126 E0.33948
G1 X77.019 Y83.534 E0.10143
G1 X78.43 Y83.435 E0.07057
G1 X79.683 Y83.725 E0.06416
G1 X80.437 Y84.023 E0.04045
G1 X81.565 Y84.826 E0.06908
G1 X82.498 Y86.03 E0.07599
G1 X82.946 Y87.208 E0.06288
G1 X83.068 Y88.017 E0.04082
G1 X83.095 Y95.658 E0.38121
G1 X82.789 Y97.106 E0.07384
G1 X81.975 Y98.543 E0.0824
G1 X81.159 Y99.246 E0.05373
G1 X80.061 Y99.97 E0.06562
G1 X79.96 Y100 E0.00526
G1 F1500 E-6.5
G0 F3600 X78.551 Y100
G1 F1500 E6.5
G1 F1800 X79.894 Y99.602 E0.06988
G1 X80.898 Y98.943 E0.05992
G1 X81.661 Y98.285 E0.05027
G1 X82.411 Y96.962 E0.07587
G1 X82.695 Y95.618 E0.06853
G1 X82.672 Y88.077 E0.37622
G1 X82.556 Y87.308 E0.0388
G1 X82.145 Y86.227 E0.0577
G1 X81.286 Y85.118 E0.06998
G1 X80.244 Y84.376 E0.06382
G1 X79.593 Y84.115 E0.03499
G1 X78.397 Y83.838 E0.06125
G1 X77.093 Y83.93 E0.06522
G1 X75.154 Y84.52 E0.10112
G1 X68.302 Y85.193 E0.34349
G1 X61.45 Y84.52 E0.34349
G1 X54.847 Y82.52 E0.3442
G1 X48.728 Y79.241 E0.34635
G1 X43.413 Y74.887 E0.34278
G1 X39.06 Y69.574 E0.34267
G1 X35.782 Y63.455 E0.34632
G1 X33.782 Y56.852 E0.3442
G1 X33.109 Y50.002 E0.34339
G1 X33.782 Y43.147 E0.34364
G1 X35.782 Y36.545 E0.34416
G1 X39.061 Y30.425 E0.34639
G1 X43.413 Y25.113 E0.3426
G1 X48.728 Y20.759 E0.34278
G1 X54.847 Y17.48 E0.34635
G1 X61.45 Y15.48 E0.3442
G1 X68.302 Y14.807 E0.34349
G1 X75.163 Y15.48 E0.34394
G1 X76.993 Y16.021 E0.09521
G1 X78.014 Y16.177 E0.05153
G1 X79.16 Y16.027 E0.05766
